; generated by PrusaSlicer 2.3.1+win64 on 2021-10-01 at 07:47:56 UTC

; 

; external perimeters extrusion width = 0.45mm
; perimeters extrusion width = 0.45mm
; infill extrusion width = 0.45mm
; solid infill extrusion width = 0.45mm
; top infill extrusion width = 0.40mm
; first layer extrusion width = 0.42mm

M73 P0 R30
M73 Q0 S30
M201 X1000 Y1000 Z200 E5000 ; sets maximum accelerations, mm/sec^2
M203 X200 Y200 Z12 E120 ; sets maximum feedrates, mm/sec
M204 P1250 R1250 T1250 ; sets acceleration (P, T) and retract acceleration (R), mm/sec^2
M205 X8.00 Y8.00 Z0.40 E4.50 ; sets the jerk limits, mm/sec
M205 S0 T0 ; sets the minimum extruding and travel feed rate, mm/sec
M107
;TYPE:Custom
M862.3 P "MK3S" ; printer model check
M862.1 P0.4 ; nozzle diameter check
M115 U3.9.3 ; tell printer latest fw version
G90 ; use absolute coordinates
M83 ; extruder relative mode
M104 S215 ; set extruder temp
M140 S60 ; set bed temp
M190 S60 ; wait for bed temp
M109 S215 ; wait for extruder temp
G28 W ; home all without mesh bed level
G80 ; mesh bed leveling
G1 Y-3.0 F1000.0 ; go outside print area
G92 E0.0
G1 X60.0 E9.0 F1000.0 ; intro line
G1 X100.0 E12.5 F1000.0 ; intro line
G92 E0.0
M221 S95

; Don't change E values below. Excessive value can damage the printer.

M907 E538 ; set extruder motor current
G21 ; set units to millimeters
G90 ; use absolute coordinates
M83 ; use relative distances for extrusion
M900 K0.05 ; Filament gcode LA 1.5
M900 K30 ; Filament gcode LA 1.0
;LAYER_CHANGE
;Z:0.2
;HEIGHT:0.2
;BEFORE_LAYER_CHANGE
G92 E0.0
;0.2


G1 E-0.80000 F2100.000
G1 Z0.400 F10800.000
;AFTER_LAYER_CHANGE
;0.2
G1 X106.492 Y92.363
G1 Z0.200
G1 E0.80000 F2100.000
M204 S1000
;TYPE:Skirt
;WIDTH:0.42
G1 F1200.000
G1 X106.833 Y91.800 E0.02065
G1 X107.302 Y91.331 E0.02078
G1 X107.866 Y90.990 E0.02065
G1 X108.498 Y90.792 E0.02078
G1 X122.680 Y88.765 E0.44918
G1 X126.004 Y88.746 E0.10424
G1 X141.558 Y90.803 E0.49193
G1 X142.171 Y91.007 E0.02026
G1 X142.720 Y91.349 E0.02026
G1 X143.174 Y91.809 E0.02026
G1 X143.508 Y92.362 E0.02026
G1 X143.751 Y93.364 E0.03233
G1 X143.732 Y96.852 E0.10935
G1 X140.218 Y118.945 E0.70142
G1 X140.008 Y119.637 E0.02269
G1 X139.607 Y120.274 E0.02358
G1 X139.049 Y120.777 E0.02358
G1 X138.371 Y121.113 E0.02371
G1 X137.632 Y121.251 E0.02358
G1 X112.475 Y121.254 E0.78877
G1 X111.906 Y121.189 E0.01796
G1 X111.363 Y121.008 E0.01796
G1 X110.790 Y120.659 E0.02103
G1 X110.319 Y120.182 E0.02103
G1 X109.977 Y119.604 E0.02103
G1 X109.785 Y118.962 E0.02103
G1 X106.267 Y96.839 E0.70235
G1 X106.249 Y93.361 E0.10907
G1 X106.478 Y92.421 E0.03032
G1 X106.840 Y92.509 F10800.000
G1 F1200.000
G1 X107.139 Y92.021 E0.01794
G1 X107.547 Y91.618 E0.01799
G1 X108.041 Y91.325 E0.01799
G1 X108.586 Y91.159 E0.01787
G1 X122.724 Y89.139 E0.44780
M73 P0 R29
G1 X126.004 Y89.123 E0.10283
G1 X141.461 Y91.168 E0.48886
M73 Q0 S29
G1 X141.999 Y91.343 E0.01775
G1 X142.481 Y91.641 E0.01775
G1 X142.879 Y92.044 E0.01775
G1 X143.168 Y92.526 E0.01763
G1 X143.375 Y93.395 E0.02802
G1 X143.357 Y96.808 E0.10700
G1 X139.846 Y118.881 E0.70079
G1 X139.661 Y119.491 E0.02000
G1 X139.309 Y120.042 E0.02048
G1 X138.824 Y120.474 E0.02036
G1 X138.237 Y120.760 E0.02048
G1 X137.598 Y120.875 E0.02036
G1 X112.481 Y120.877 E0.78754
M73 P1 R29
M73 Q1 S29
G1 X111.982 Y120.820 E0.01574
G1 X111.507 Y120.660 E0.01574
G1 X111.015 Y120.356 E0.01811
G1 X110.611 Y119.944 E0.01811
G1 X110.319 Y119.445 E0.01811
G1 X110.155 Y118.888 E0.01823
G1 X106.641 Y96.794 E0.70143
G1 X106.625 Y93.390 E0.10675
G1 X106.826 Y92.567 E0.02654
; printing object AlignmentJig.stl id:0 copy 0
;WIPE_START
G1 F8640.000
G1 X107.139 Y92.021 E-0.14535
G1 X107.547 Y91.618 E-0.13248
G1 X108.041 Y91.325 E-0.13248
G1 X108.586 Y91.159 E-0.13161
G1 X109.521 Y91.026 E-0.21808
;WIPE_END
G1 E-0.04000 F2100.000
G1 Z0.600 F10800.000
G1 X122.350 Y105.387
G1 Z0.200
G1 E0.80000 F2100.000
;TYPE:Perimeter
G1 F1200.000
G1 X122.695 Y105.015 E0.01588
G1 X123.072 Y104.714 E0.01514
G1 X123.527 Y104.447 E0.01655
G1 X124.001 Y104.261 E0.01595
G1 X124.495 Y104.149 E0.01588
G1 X124.976 Y104.112 E0.01514
G1 X125.503 Y104.148 E0.01655
G1 X125.999 Y104.261 E0.01595
G1 X126.471 Y104.446 E0.01588
G1 X126.909 Y104.700 E0.01588
G1 X127.305 Y105.015 E0.01588
G1 X127.650 Y105.387 E0.01588
G1 X127.935 Y105.805 E0.01588
G1 X128.155 Y106.262 E0.01588
G1 X128.304 Y106.746 E0.01588
G1 X128.380 Y107.247 E0.01588
G1 X128.380 Y107.753 E0.01588
G1 X128.304 Y108.254 E0.01588
G1 X128.155 Y108.738 E0.01588
G1 X127.935 Y109.195 E0.01588
G1 X127.650 Y109.613 E0.01588
G1 X127.305 Y109.985 E0.01588
G1 X126.909 Y110.300 E0.01588
G1 X126.471 Y110.554 E0.01588
G1 X125.999 Y110.739 E0.01588
G1 X125.505 Y110.851 E0.01588
G1 X125.000 Y110.889 E0.01588
G1 X124.495 Y110.851 E0.01588
G1 X124.001 Y110.739 E0.01588
G1 X123.551 Y110.562 E0.01514
G1 X123.092 Y110.302 E0.01655
G1 X122.695 Y109.985 E0.01595
G1 X122.350 Y109.613 E0.01588
G1 X122.065 Y109.195 E0.01588
G1 X121.845 Y108.738 E0.01588
G1 X121.696 Y108.254 E0.01588
G1 X121.620 Y107.753 E0.01588
G1 X121.620 Y107.247 E0.01588
G1 X121.696 Y106.746 E0.01588
G1 X121.845 Y106.262 E0.01588
G1 X122.065 Y105.805 E0.01588
G1 X122.316 Y105.436 E0.01400
G1 X122.628 Y105.649 F10800.000
;TYPE:External perimeter
G1 F1200.000
G1 X122.952 Y105.293 E0.01510
G1 X123.286 Y105.026 E0.01341
G1 X123.693 Y104.787 E0.01478
G1 X124.112 Y104.623 E0.01413
G1 X124.551 Y104.522 E0.01411
G1 X124.978 Y104.491 E0.01341
G1 X125.448 Y104.522 E0.01478
G1 X125.888 Y104.623 E0.01413
G1 X126.306 Y104.787 E0.01411
G1 X126.696 Y105.012 E0.01411
G1 X127.048 Y105.293 E0.01411
G1 X127.354 Y105.623 E0.01411
G1 X127.608 Y105.994 E0.01411
G1 X127.803 Y106.400 E0.01411
G1 X127.936 Y106.830 E0.01411
G1 X128.003 Y107.275 E0.01411
G1 X128.003 Y107.725 E0.01411
G1 X127.936 Y108.170 E0.01411
G1 X127.803 Y108.600 E0.01411
G1 X127.608 Y109.006 E0.01411
G1 X127.354 Y109.377 E0.01411
G1 X127.048 Y109.707 E0.01411
G1 X126.696 Y109.988 E0.01411
G1 X126.306 Y110.213 E0.01411
G1 X125.888 Y110.377 E0.01411
G1 X125.449 Y110.478 E0.01411
G1 X125.000 Y110.511 E0.01411
G1 X124.551 Y110.478 E0.01411
G1 X124.112 Y110.377 E0.01411
G1 X123.714 Y110.221 E0.01341
G1 X123.304 Y109.988 E0.01478
G1 X122.952 Y109.707 E0.01413
G1 X122.646 Y109.377 E0.01411
G1 X122.392 Y109.006 E0.01411
G1 X122.197 Y108.600 E0.01411
G1 X122.064 Y108.170 E0.01411
G1 X121.997 Y107.725 E0.01411
G1 X121.997 Y107.275 E0.01411
G1 X122.064 Y106.830 E0.01411
G1 X122.197 Y106.400 E0.01411
G1 X122.392 Y105.994 E0.01411
G1 X122.594 Y105.698 E0.01123
G1 X122.479 Y105.278 F10800.000
;WIPE_START
G1 F8640.000
G1 X122.952 Y105.293 E-0.12490
G1 X123.286 Y105.026 E-0.09878
G1 X123.693 Y104.787 E-0.10882
G1 X124.112 Y104.623 E-0.10409
G1 X124.551 Y104.522 E-0.10392
G1 X124.978 Y104.491 E-0.09878
G1 X125.448 Y104.522 E-0.10882
G1 X125.498 Y104.534 E-0.01188
;WIPE_END
G1 E-0.04000 F2100.000
G1 Z0.600 F10800.000
G1 X125.213 Y94.287
G1 Z0.200
G1 E0.80000 F2100.000
;TYPE:Perimeter
G1 F1200.000
G1 X140.213 Y94.287 E0.47031
G1 X140.213 Y95.713 E0.04471
G1 X136.713 Y95.713 E0.10974
G1 X136.713 Y117.713 E0.68979
G1 X113.287 Y117.713 E0.73450
G1 X113.287 Y95.713 E0.68979
G1 X109.787 Y95.713 E0.10974
G1 X109.787 Y94.287 E0.04471
G1 X123.787 Y94.287 E0.43896
G1 X123.787 Y92.287 E0.06271
G1 X125.213 Y92.287 E0.04471
G1 X125.213 Y94.227 E0.06083
G1 X125.590 Y93.910 F10800.000
;TYPE:External perimeter
G1 F1200.000
G1 X140.590 Y93.910 E0.47031
G1 X140.590 Y96.090 E0.06835
G1 X137.090 Y96.090 E0.10974
G1 X137.090 Y118.090 E0.68979
G1 X112.910 Y118.090 E0.75815
G1 X112.910 Y96.090 E0.68979
G1 X109.410 Y96.090 E0.10974
G1 X109.410 Y93.910 E0.06835
G1 X123.410 Y93.910 E0.43896
G1 X123.410 Y91.910 E0.06271
G1 X125.590 Y91.910 E0.06835
G1 X125.590 Y93.850 E0.06083
G1 X125.699 Y94.295 F10800.000
;WIPE_START
G1 F8640.000
G1 X128.881 Y93.863 E-0.76000
;WIPE_END
G1 E-0.04000 F2100.000
G1 Z0.600 F10800.000
G1 X140.100 Y95.169
G1 Z0.200
G1 E0.80000 F2100.000
;TYPE:Solid infill
;WIDTH:0.422892
G1 F1200.000
G1 X139.501 Y94.570 E0.02675
G1 X138.964 Y94.570 E0.01698
G1 X139.824 Y95.430 E0.03844
G1 X139.287 Y95.430 E0.01698
G1 X138.426 Y94.570 E0.03844
G1 X137.889 Y94.570 E0.01698
G1 X138.749 Y95.430 E0.03844
G1 X138.212 Y95.430 E0.01698
G1 X137.352 Y94.570 E0.03844
G1 X136.814 Y94.570 E0.01698
G1 X137.675 Y95.430 E0.03844
G1 X137.137 Y95.430 E0.01698
G1 X136.277 Y94.570 E0.03844
M73 Q2 S29
G1 X135.740 Y94.570 E0.01698
G1 X136.600 Y95.430 E0.03844
G1 X136.430 Y95.430 E0.00536
G1 X136.430 Y95.798 E0.01162
G1 X135.202 Y94.570 E0.05487
G1 X134.665 Y94.570 E0.01698
G1 X136.430 Y96.335 E0.07888
M73 P2 R29
G1 X136.430 Y96.873 E0.01698
G1 X134.127 Y94.570 E0.10289
G1 X133.590 Y94.570 E0.01698
G1 X136.430 Y97.410 E0.12690
G1 X136.430 Y97.947 E0.01698
G1 X133.053 Y94.570 E0.15091
G1 X132.515 Y94.570 E0.01698
G1 X136.430 Y98.485 E0.17492
G1 X136.430 Y99.022 E0.01698
G1 X131.978 Y94.570 E0.19893
G1 X131.441 Y94.570 E0.01698
G1 X136.430 Y99.559 E0.22294
G1 X136.430 Y100.097 E0.01698
G1 X130.903 Y94.570 E0.24695
G1 X130.366 Y94.570 E0.01698
G1 X136.430 Y100.634 E0.27096
G1 X136.430 Y101.171 E0.01698
G1 X129.829 Y94.570 E0.29497
G1 X129.291 Y94.570 E0.01698
G1 X136.430 Y101.709 E0.31898
G1 X136.430 Y102.246 E0.01698
G1 X128.754 Y94.570 E0.34299
G1 X128.216 Y94.570 E0.01698
G1 X136.430 Y102.784 E0.36700
G1 X136.430 Y103.321 E0.01698
G1 X127.679 Y94.570 E0.39101
G1 X127.142 Y94.570 E0.01698
G1 X136.430 Y103.858 E0.41502
G1 X136.430 Y104.396 E0.01698
G1 X126.604 Y94.570 E0.43903
G1 X126.067 Y94.570 E0.01698
G1 X136.430 Y104.933 E0.46304
G1 X136.430 Y105.470 E0.01698
G1 X125.360 Y94.400 E0.49463
;WIPE_START
G1 F8640.000
G1 X127.687 Y96.728 E-0.76000
;WIPE_END
G1 E-0.04000 F2100.000
G1 Z0.600 F10800.000
G1 X125.100 Y93.065
G1 Z0.200
G1 E0.80000 F2100.000
G1 F1200.000
G1 X124.604 Y92.570 E0.02214
G1 X124.070 Y92.570 E0.01689
G1 X124.930 Y93.433 E0.03850
G1 X124.930 Y93.970 E0.01698
G1 X124.070 Y93.110 E0.03844
G1 X124.070 Y93.647 E0.01698
G1 X136.430 Y106.008 E0.55228
G1 X136.430 Y106.545 E0.01698
G1 X124.070 Y94.185 E0.55228
G1 X124.070 Y94.570 E0.01217
G1 X123.918 Y94.570 E0.00481
G1 X136.430 Y107.082 E0.55908
G1 X136.430 Y107.620 E0.01698
G1 X123.380 Y94.570 E0.58309
G1 X122.843 Y94.570 E0.01698
G1 X136.430 Y108.157 E0.60710
G1 X136.430 Y108.694 E0.01698
G1 X122.306 Y94.570 E0.63111
G1 X121.768 Y94.570 E0.01698
G1 X136.430 Y109.232 E0.65512
G1 X136.430 Y109.769 E0.01698
G1 X121.231 Y94.570 E0.67913
G1 X120.693 Y94.570 E0.01698
G1 X136.430 Y110.307 E0.70314
M73 P3 R29
M73 Q3 S29
G1 X136.430 Y110.844 E0.01698
G1 X120.156 Y94.570 E0.72715
G1 X119.619 Y94.570 E0.01698
G1 X136.430 Y111.381 E0.75116
G1 X136.430 Y111.919 E0.01698
G1 X119.081 Y94.570 E0.77517
G1 X118.544 Y94.570 E0.01698
G1 X136.430 Y112.456 E0.79918
G1 X136.430 Y112.993 E0.01698
G1 X118.007 Y94.570 E0.82319
G1 X117.469 Y94.570 E0.01698
G1 X136.430 Y113.531 E0.84721
G1 X136.430 Y114.068 E0.01698
G1 X128.325 Y105.963 E0.36215
G1 X128.181 Y105.664 E0.01050
G1 X127.872 Y105.210 E0.01734
G1 X127.498 Y104.808 E0.01734
G1 X127.069 Y104.465 E0.01734
G1 X126.527 Y104.165 E0.01960
G1 X116.932 Y94.570 E0.42871
G1 X116.395 Y94.570 E0.01698
G1 X125.736 Y103.911 E0.41738
G1 X125.544 Y103.867 E0.00621
G1 X125.126 Y103.839 E0.01323
G1 X115.857 Y94.570 E0.41417
G1 X115.320 Y94.570 E0.01698
G1 X124.607 Y103.857 E0.41495
G1 X124.453 Y103.868 E0.00488
G1 X124.150 Y103.937 E0.00981
G1 X114.782 Y94.570 E0.41855
G1 X114.245 Y94.570 E0.01698
G1 X123.737 Y104.061 E0.42409
G1 X123.357 Y104.219 E0.01298
G1 X113.708 Y94.570 E0.43115
G1 X113.170 Y94.570 E0.01698
G1 X123.019 Y104.418 E0.44003
G1 X122.707 Y104.644 E0.01216
G1 X112.633 Y94.570 E0.45013
G1 X112.096 Y94.570 E0.01698
G1 X112.956 Y95.430 E0.03844
G1 X112.419 Y95.430 E0.01698
G1 X111.558 Y94.570 E0.03844
G1 X111.021 Y94.570 E0.01698
G1 X111.881 Y95.430 E0.03844
G1 X111.344 Y95.430 E0.01698
G1 X110.484 Y94.570 E0.03844
G1 X110.070 Y94.570 E0.01307
G1 X110.070 Y94.694 E0.00391
G1 X110.806 Y95.430 E0.03291
G1 X110.269 Y95.430 E0.01698
G1 X109.900 Y95.061 E0.01648
;WIPE_START
G1 F8640.000
G1 X110.269 Y95.430 E-0.12046
G1 X110.806 Y95.430 E-0.12408
G1 X110.070 Y94.694 E-0.24052
G1 X110.070 Y94.570 E-0.02856
G1 X110.484 Y94.570 E-0.09552
G1 X110.946 Y95.032 E-0.15086
;WIPE_END
G1 E-0.04000 F2100.000
G1 Z0.600 F10800.000
G1 X113.400 Y95.874
G1 Z0.200
G1 E0.80000 F2100.000
G1 F1200.000
G1 X122.421 Y104.895 E0.40305
G1 X122.162 Y105.174 E0.01201
G1 X113.570 Y96.581 E0.38392
M73 Q4 S29
G1 X113.570 Y97.119 E0.01698
G1 X121.939 Y105.488 E0.37395
M73 P4 R29
G1 X121.819 Y105.664 E0.00672
G1 X121.741 Y105.827 E0.00573
G1 X113.570 Y97.656 E0.36508
G1 X113.570 Y98.194 E0.01698
G1 X121.570 Y106.194 E0.35746
G1 X121.443 Y106.604 E0.01358
G1 X113.570 Y98.731 E0.35180
M73 P4 R28
G1 X113.570 Y99.268 E0.01698
G1 X121.362 Y107.061 E0.34818
G1 X121.337 Y107.226 E0.00527
G1 X121.337 Y107.573 E0.01098
G1 X113.570 Y99.806 E0.34707
M73 Q4 S28
G1 X113.570 Y100.343 E0.01698
G1 X121.620 Y108.393 E0.35971
;WIPE_START
G1 F8640.000
G1 X119.293 Y106.066 E-0.76000
;WIPE_END
G1 E-0.04000 F2100.000
G1 Z0.600 F10800.000
G1 X128.357 Y106.532
G1 Z0.200
G1 E0.80000 F2100.000
G1 F1200.000
G1 X136.430 Y114.605 E0.36073
G1 X136.430 Y115.143 E0.01698
G1 X128.663 Y107.375 E0.34707
G1 X128.663 Y107.774 E0.01261
G1 X128.645 Y107.895 E0.00384
G1 X136.430 Y115.680 E0.34788
G1 X136.430 Y116.218 E0.01698
G1 X128.569 Y108.356 E0.35126
G1 X128.442 Y108.767 E0.01358
G1 X136.430 Y116.755 E0.35692
G1 X136.430 Y117.292 E0.01698
G1 X128.276 Y109.138 E0.36433
G1 X128.181 Y109.336 E0.00695
G1 X128.082 Y109.481 E0.00554
G1 X136.031 Y117.430 E0.35516
G1 X135.493 Y117.430 E0.01698
G1 X127.863 Y109.800 E0.34095
G1 X127.604 Y110.078 E0.01201
G1 X134.956 Y117.430 E0.32849
G1 X134.419 Y117.430 E0.01698
G1 X127.322 Y110.333 E0.31710
G1 X127.016 Y110.565 E0.01212
G1 X133.881 Y117.430 E0.30674
G1 X133.344 Y117.430 E0.01698
G1 X126.676 Y110.762 E0.29795
G1 X126.301 Y110.924 E0.01291
G1 X132.806 Y117.430 E0.29070
G1 X132.269 Y117.430 E0.01698
G1 X125.892 Y111.053 E0.28493
G1 X125.441 Y111.140 E0.01450
G1 X131.732 Y117.430 E0.28106
G1 X131.194 Y117.430 E0.01698
G1 X124.932 Y111.168 E0.27981
G1 X124.453 Y111.132 E0.01519
G1 X124.331 Y111.104 E0.00394
G1 X130.657 Y117.430 E0.28266
G1 X130.120 Y117.430 E0.01698
G1 X123.558 Y110.869 E0.29317
G1 X123.429 Y110.818 E0.00438
G1 X122.933 Y110.537 E0.01801
G1 X122.502 Y110.192 E0.01744
G1 X122.128 Y109.790 E0.01734
G1 X121.819 Y109.336 E0.01734
G1 X121.627 Y108.938 E0.01399
G1 X113.570 Y100.880 E0.36001
G1 X113.570 Y101.418 E0.01698
G1 X129.582 Y117.430 E0.71546
G1 X129.045 Y117.430 E0.01698
G1 X113.570 Y101.955 E0.69145
G1 X113.570 Y102.492 E0.01698
G1 X128.508 Y117.430 E0.66744
M73 P5 R28
M73 Q5 S28
G1 X127.970 Y117.430 E0.01698
G1 X113.570 Y103.030 E0.64343
G1 X113.570 Y103.567 E0.01698
G1 X127.433 Y117.430 E0.61942
G1 X126.895 Y117.430 E0.01698
G1 X113.570 Y104.105 E0.59541
G1 X113.570 Y104.642 E0.01698
G1 X126.358 Y117.430 E0.57140
G1 X125.821 Y117.430 E0.01698
G1 X113.570 Y105.179 E0.54739
G1 X113.570 Y105.717 E0.01698
G1 X125.283 Y117.430 E0.52338
G1 X124.746 Y117.430 E0.01698
G1 X113.570 Y106.254 E0.49937
G1 X113.570 Y106.791 E0.01698
G1 X124.209 Y117.430 E0.47536
G1 X123.671 Y117.430 E0.01698
G1 X113.570 Y107.329 E0.45135
G1 X113.570 Y107.866 E0.01698
G1 X123.134 Y117.430 E0.42734
G1 X122.597 Y117.430 E0.01698
G1 X113.570 Y108.403 E0.40333
G1 X113.570 Y108.941 E0.01698
G1 X122.059 Y117.430 E0.37932
G1 X121.522 Y117.430 E0.01698
G1 X113.570 Y109.478 E0.35531
G1 X113.570 Y110.016 E0.01698
G1 X120.984 Y117.430 E0.33130
G1 X120.447 Y117.430 E0.01698
G1 X113.570 Y110.553 E0.30729
G1 X113.570 Y111.090 E0.01698
G1 X119.910 Y117.430 E0.28328
G1 X119.372 Y117.430 E0.01698
G1 X113.570 Y111.628 E0.25927
G1 X113.570 Y112.165 E0.01698
G1 X118.835 Y117.430 E0.23526
G1 X118.298 Y117.430 E0.01698
G1 X113.570 Y112.702 E0.21125
G1 X113.570 Y113.240 E0.01698
G1 X117.760 Y117.430 E0.18724
G1 X117.223 Y117.430 E0.01698
G1 X113.570 Y113.777 E0.16323
G1 X113.570 Y114.314 E0.01698
G1 X116.686 Y117.430 E0.13922
G1 X116.148 Y117.430 E0.01698
G1 X113.570 Y114.852 E0.11521
G1 X113.570 Y115.389 E0.01698
