; generated by PrusaSlicer 2.3.1+win64 on 2021-10-21 at 10:18:18 UTC

; 

; external perimeters extrusion width = 0.45mm
; perimeters extrusion width = 0.45mm
; infill extrusion width = 0.45mm
; solid infill extrusion width = 0.45mm
; top infill extrusion width = 0.40mm
; first layer extrusion width = 0.42mm

M73 P0 R30
M73 Q0 S30
M201 X1000 Y1000 Z200 E5000 ; sets maximum accelerations, mm/sec^2
M203 X200 Y200 Z12 E120 ; sets maximum feedrates, mm/sec
M204 P1250 R1250 T1250 ; sets acceleration (P, T) and retract acceleration (R), mm/sec^2
M205 X8.00 Y8.00 Z0.40 E4.50 ; sets the jerk limits, mm/sec
M205 S0 T0 ; sets the minimum extruding and travel feed rate, mm/sec
M107
;TYPE:Custom
M862.3 P "MK3S" ; printer model check
M862.1 P0.4 ; nozzle diameter check
M115 U3.9.3 ; tell printer latest fw version
G90 ; use absolute coordinates
M83 ; extruder relative mode
M104 S215 ; set extruder temp
M140 S60 ; set bed temp
M190 S60 ; wait for bed temp
M109 S215 ; wait for extruder temp
G28 W ; home all without mesh bed level
G80 ; mesh bed leveling
G1 Y-3.0 F1000.0 ; go outside print area
G92 E0.0
G1 X60.0 E9.0 F1000.0 ; intro line
G1 X100.0 E12.5 F1000.0 ; intro line
G92 E0.0
M221 S95

; Don't change E values below. Excessive value can damage the printer.

M907 E538 ; set extruder motor current
G21 ; set units to millimeters
G90 ; use absolute coordinates
M83 ; use relative distances for extrusion
M900 K0.05 ; Filament gcode LA 1.5
M900 K30 ; Filament gcode LA 1.0
;LAYER_CHANGE
;Z:0.2
;HEIGHT:0.2
;BEFORE_LAYER_CHANGE
G92 E0.0
;0.2


G1 E-0.80000 F2100.000
G1 Z0.400 F10800.000
;AFTER_LAYER_CHANGE
;0.2
G1 X106.492 Y92.363
G1 Z0.200
G1 E0.80000 F2100.000
M204 S1000
;TYPE:Skirt
;WIDTH:0.42
G1 F1200.000
G1 X106.833 Y91.800 E0.02065
G1 X107.302 Y91.331 E0.02078
G1 X107.866 Y90.990 E0.02065
G1 X108.498 Y90.792 E0.02078
G1 X122.680 Y88.765 E0.44918
G1 X126.004 Y88.746 E0.10424
G1 X141.558 Y90.803 E0.49193
G1 X142.171 Y91.007 E0.02026
G1 X142.720 Y91.349 E0.02026
G1 X143.174 Y91.809 E0.02026
G1 X143.508 Y92.362 E0.02026
G1 X143.751 Y93.364 E0.03233
G1 X143.732 Y96.852 E0.10935
G1 X140.218 Y118.945 E0.70142
G1 X140.008 Y119.637 E0.02269
G1 X139.607 Y120.274 E0.02358
G1 X139.049 Y120.777 E0.02358
G1 X138.371 Y121.113 E0.02371
G1 X137.632 Y121.251 E0.02358
G1 X112.475 Y121.254 E0.78877
G1 X111.906 Y121.189 E0.01796
G1 X111.363 Y121.008 E0.01796
G1 X110.790 Y120.659 E0.02103
G1 X110.319 Y120.182 E0.02103
G1 X109.977 Y119.604 E0.02103
G1 X109.785 Y118.962 E0.02103
G1 X106.267 Y96.839 E0.70235
G1 X106.249 Y93.361 E0.10907
G1 X106.478 Y92.421 E0.03032
G1 X106.840 Y92.509 F10800.000
G1 F1200.000
G1 X107.139 Y92.021 E0.01794
G1 X107.547 Y91.618 E0.01799
G1 X108.041 Y91.325 E0.01799
G1 X108.586 Y91.159 E0.01787
G1 X122.724 Y89.139 E0.44780
G1 X126.004 Y89.123 E0.10283
G1 X141.461 Y91.168 E0.48886
G1 X141.999 Y91.343 E0.01775
G1 X142.481 Y91.641 E0.01775
G1 X142.879 Y92.044 E0.01775
G1 X143.168 Y92.526 E0.01763
G1 X143.375 Y93.395 E0.02802
G1 X143.357 Y96.808 E0.10700
G1 X139.846 Y118.881 E0.70079
G1 X139.661 Y119.491 E0.02000
G1 X139.309 Y120.042 E0.02048
G1 X138.824 Y120.474 E0.02036
G1 X138.237 Y120.760 E0.02048
G1 X137.598 Y120.875 E0.02036
G1 X112.481 Y120.877 E0.78754
M73 P1 R30
M73 Q1 S30
G1 X111.982 Y120.820 E0.01574
G1 X111.507 Y120.660 E0.01574
G1 X111.015 Y120.356 E0.01811
G1 X110.611 Y119.944 E0.01811
G1 X110.319 Y119.445 E0.01811
G1 X110.155 Y118.888 E0.01823
G1 X106.641 Y96.794 E0.70143
G1 X106.625 Y93.390 E0.10675
G1 X106.826 Y92.567 E0.02654
; printing object AlignmentLaser.stl id:0 copy 0
;WIPE_START
G1 F8640.000
G1 X107.139 Y92.021 E-0.14535
G1 X107.547 Y91.618 E-0.13248
G1 X108.041 Y91.325 E-0.13248
G1 X108.586 Y91.159 E-0.13161
G1 X109.521 Y91.026 E-0.21808
;WIPE_END
G1 E-0.04000 F2100.000
G1 Z0.600 F10800.000
G1 X122.307 Y105.610
G1 Z0.200
G1 E0.80000 F2100.000
;TYPE:Perimeter
G1 F1200.000
G1 X122.630 Y105.219 E0.01590
G1 X122.978 Y104.909 E0.01460
G1 X123.425 Y104.612 E0.01686
G1 X123.888 Y104.404 E0.01590
G1 X124.374 Y104.271 E0.01579
G1 X124.836 Y104.217 E0.01460
G1 X125.374 Y104.232 E0.01686
G1 X125.872 Y104.328 E0.01590
G1 X126.346 Y104.498 E0.01579
G1 X126.788 Y104.739 E0.01579
G1 X127.189 Y105.044 E0.01579
G1 X127.538 Y105.407 E0.01579
G1 X127.806 Y105.788 E0.01460
G1 X128.050 Y106.267 E0.01686
G1 X128.203 Y106.751 E0.01590
G1 X128.280 Y107.248 E0.01579
G1 X128.280 Y107.752 E0.01579
G1 X128.203 Y108.250 E0.01579
G1 X128.051 Y108.730 E0.01579
G1 X127.844 Y109.147 E0.01460
G1 X127.540 Y109.590 E0.01686
G1 X127.189 Y109.956 E0.01590
G1 X126.788 Y110.261 E0.01579
G1 X126.346 Y110.502 E0.01579
G1 X125.872 Y110.672 E0.01579
G1 X125.377 Y110.768 E0.01579
G1 X124.874 Y110.787 E0.01579
G1 X124.374 Y110.729 E0.01579
G1 X123.888 Y110.596 E0.01579
G1 X123.429 Y110.390 E0.01579
G1 X123.006 Y110.116 E0.01579
G1 X122.630 Y109.781 E0.01579
G1 X122.310 Y109.392 E0.01579
G1 X122.052 Y108.960 E0.01579
G1 X121.864 Y108.492 E0.01579
G1 X121.749 Y108.002 E0.01579
G1 X121.711 Y107.500 E0.01579
G1 X121.749 Y106.998 E0.01579
G1 X121.864 Y106.508 E0.01579
G1 X122.038 Y106.076 E0.01460
G1 X122.277 Y105.662 E0.01498
G1 X122.604 Y105.851 F10800.000
;TYPE:External perimeter
G1 F1200.000
G1 X122.902 Y105.481 E0.01491
G1 X123.208 Y105.209 E0.01285
G1 X123.608 Y104.943 E0.01504
G1 X124.016 Y104.760 E0.01401
G1 X124.446 Y104.642 E0.01397
G1 X124.853 Y104.595 E0.01285
G1 X125.333 Y104.608 E0.01504
G1 X125.771 Y104.693 E0.01401
G1 X126.191 Y104.844 E0.01397
G1 X126.582 Y105.056 E0.01397
G1 X126.937 Y105.327 E0.01397
G1 X127.246 Y105.648 E0.01397
G1 X127.482 Y105.983 E0.01285
G1 X127.700 Y106.411 E0.01504
G1 X127.835 Y106.837 E0.01401
G1 X127.903 Y107.277 E0.01397
G1 X127.903 Y107.723 E0.01397
G1 X127.835 Y108.163 E0.01397
G1 X127.700 Y108.588 E0.01397
G1 X127.518 Y108.956 E0.01285
G1 X127.247 Y109.351 E0.01504
G1 X126.937 Y109.673 E0.01401
G1 X126.582 Y109.944 E0.01397
G1 X126.191 Y110.156 E0.01397
G1 X125.771 Y110.307 E0.01397
G1 X125.334 Y110.392 E0.01397
G1 X124.888 Y110.409 E0.01397
G1 X124.446 Y110.358 E0.01397
G1 X124.016 Y110.240 E0.01397
G1 X123.609 Y110.058 E0.01397
G1 X123.235 Y109.815 E0.01397
G1 X122.902 Y109.519 E0.01397
G1 X122.619 Y109.175 E0.01397
G1 X122.391 Y108.792 E0.01397
G1 X122.224 Y108.378 E0.01397
G1 X122.123 Y107.944 E0.01397
G1 X122.089 Y107.500 E0.01397
G1 X122.123 Y107.056 E0.01397
G1 X122.224 Y106.622 E0.01397
G1 X122.378 Y106.241 E0.01285
G1 X122.574 Y105.903 E0.01226
G1 X122.433 Y105.489 F10800.000
;WIPE_START
G1 F8640.000
G1 X122.902 Y105.481 E-0.12348
G1 X123.208 Y105.209 E-0.09466
G1 X123.608 Y104.943 E-0.11079
G1 X124.016 Y104.760 E-0.10320
G1 X124.446 Y104.642 E-0.10291
G1 X124.853 Y104.595 E-0.09466
G1 X125.333 Y104.608 E-0.11079
G1 X125.416 Y104.624 E-0.01950
;WIPE_END
G1 E-0.04000 F2100.000
G1 Z0.600 F10800.000
G1 X125.213 Y94.287
G1 Z0.200
G1 E0.80000 F2100.000
;TYPE:Perimeter
G1 F1200.000
G1 X140.213 Y94.287 E0.47031
G1 X140.213 Y95.713 E0.04471
G1 X136.713 Y95.713 E0.10974
G1 X136.713 Y117.713 E0.68979
M73 P1 R29
G1 X113.287 Y117.713 E0.73450
M73 Q1 S29
G1 X113.287 Y95.713 E0.68979
G1 X109.787 Y95.713 E0.10974
G1 X109.787 Y94.287 E0.04471
G1 X123.787 Y94.287 E0.43896
G1 X123.787 Y92.287 E0.06271
G1 X125.213 Y92.287 E0.04471
G1 X125.213 Y94.227 E0.06083
G1 X125.590 Y93.910 F10800.000
;TYPE:External perimeter
G1 F1200.000
G1 X140.590 Y93.910 E0.47031
G1 X140.590 Y96.090 E0.06835
G1 X137.090 Y96.090 E0.10974
G1 X137.090 Y118.090 E0.68979
G1 X112.910 Y118.090 E0.75815
G1 X112.910 Y96.090 E0.68979
G1 X109.410 Y96.090 E0.10974
G1 X109.410 Y93.910 E0.06835
G1 X123.410 Y93.910 E0.43896
G1 X123.410 Y91.910 E0.06271
G1 X125.590 Y91.910 E0.06835
G1 X125.590 Y93.850 E0.06083
G1 X125.699 Y94.295 F10800.000
;WIPE_START
G1 F8640.000
G1 X128.881 Y93.863 E-0.76000
;WIPE_END
G1 E-0.04000 F2100.000
G1 Z0.600 F10800.000
G1 X140.100 Y95.169
G1 Z0.200
G1 E0.80000 F2100.000
;TYPE:Solid infill
;WIDTH:0.422892
G1 F1200.000
G1 X139.501 Y94.570 E0.02675
G1 X138.964 Y94.570 E0.01698
G1 X139.824 Y95.430 E0.03844
G1 X139.287 Y95.430 E0.01698
G1 X138.426 Y94.570 E0.03844
G1 X137.889 Y94.570 E0.01698
G1 X138.749 Y95.430 E0.03844
G1 X138.212 Y95.430 E0.01698
G1 X137.352 Y94.570 E0.03844
G1 X136.814 Y94.570 E0.01698
G1 X137.675 Y95.430 E0.03844
G1 X137.137 Y95.430 E0.01698
G1 X136.277 Y94.570 E0.03844
G1 X135.740 Y94.570 E0.01698
G1 X136.600 Y95.430 E0.03844
G1 X136.430 Y95.430 E0.00536
G1 X136.430 Y95.798 E0.01162
G1 X135.202 Y94.570 E0.05487
M73 Q2 S29
G1 X134.665 Y94.570 E0.01698
G1 X136.430 Y96.335 E0.07888
G1 X136.430 Y96.873 E0.01698
G1 X134.127 Y94.570 E0.10289
M73 P2 R29
G1 X133.590 Y94.570 E0.01698
G1 X136.430 Y97.410 E0.12690
G1 X136.430 Y97.947 E0.01698
G1 X133.053 Y94.570 E0.15091
G1 X132.515 Y94.570 E0.01698
G1 X136.430 Y98.485 E0.17492
G1 X136.430 Y99.022 E0.01698
G1 X131.978 Y94.570 E0.19893
G1 X131.441 Y94.570 E0.01698
G1 X136.430 Y99.559 E0.22294
G1 X136.430 Y100.097 E0.01698
G1 X130.903 Y94.570 E0.24695
G1 X130.366 Y94.570 E0.01698
G1 X136.430 Y100.634 E0.27096
G1 X136.430 Y101.171 E0.01698
G1 X129.829 Y94.570 E0.29497
G1 X129.291 Y94.570 E0.01698
G1 X136.430 Y101.709 E0.31898
G1 X136.430 Y102.246 E0.01698
G1 X128.754 Y94.570 E0.34299
G1 X128.216 Y94.570 E0.01698
G1 X136.430 Y102.784 E0.36700
G1 X136.430 Y103.321 E0.01698
G1 X127.679 Y94.570 E0.39101
G1 X127.142 Y94.570 E0.01698
G1 X136.430 Y103.858 E0.41502
G1 X136.430 Y104.396 E0.01698
G1 X126.604 Y94.570 E0.43903
G1 X126.067 Y94.570 E0.01698
G1 X136.430 Y104.933 E0.46304
G1 X136.430 Y105.470 E0.01698
G1 X125.360 Y94.400 E0.49463
;WIPE_START
G1 F8640.000
G1 X127.687 Y96.728 E-0.76000
;WIPE_END
G1 E-0.04000 F2100.000
G1 Z0.600 F10800.000
G1 X125.100 Y93.065
G1 Z0.200
G1 E0.80000 F2100.000
G1 F1200.000
G1 X124.604 Y92.570 E0.02214
G1 X124.070 Y92.570 E0.01689
G1 X124.930 Y93.433 E0.03850
G1 X124.930 Y93.970 E0.01698
G1 X124.070 Y93.110 E0.03844
G1 X124.070 Y93.647 E0.01698
G1 X136.430 Y106.008 E0.55228
G1 X136.430 Y106.545 E0.01698
G1 X124.070 Y94.185 E0.55228
G1 X124.070 Y94.570 E0.01217
G1 X123.918 Y94.570 E0.00481
G1 X136.430 Y107.082 E0.55908
G1 X136.430 Y107.620 E0.01698
G1 X123.380 Y94.570 E0.58309
G1 X122.843 Y94.570 E0.01698
G1 X136.430 Y108.157 E0.60710
G1 X136.430 Y108.694 E0.01698
G1 X122.306 Y94.570 E0.63111
G1 X121.768 Y94.570 E0.01698
G1 X136.430 Y109.232 E0.65512
G1 X136.430 Y109.769 E0.01698
G1 X121.231 Y94.570 E0.67913
G1 X120.693 Y94.570 E0.01698
G1 X136.430 Y110.307 E0.70314
M73 P3 R29
M73 Q3 S29
G1 X136.430 Y110.844 E0.01698
G1 X120.156 Y94.570 E0.72715
G1 X119.619 Y94.570 E0.01698
G1 X136.430 Y111.381 E0.75116
G1 X136.430 Y111.919 E0.01698
G1 X119.081 Y94.570 E0.77517
G1 X118.544 Y94.570 E0.01698
G1 X136.430 Y112.456 E0.79918
G1 X136.430 Y112.993 E0.01698
G1 X118.007 Y94.570 E0.82319
G1 X117.469 Y94.570 E0.01698
G1 X136.430 Y113.531 E0.84721
G1 X136.430 Y114.068 E0.01698
G1 X116.932 Y94.570 E0.87122
G1 X116.395 Y94.570 E0.01698
G1 X125.863 Y104.038 E0.42307
G1 X125.405 Y103.950 E0.01475
G1 X125.232 Y103.945 E0.00545
G1 X115.857 Y94.570 E0.41890
G1 X115.320 Y94.570 E0.01698
G1 X124.699 Y103.949 E0.41906
G1 X124.230 Y104.017 E0.01497
G1 X114.782 Y94.570 E0.42212
G1 X114.245 Y94.570 E0.01698
G1 X123.808 Y104.133 E0.42729
G1 X123.435 Y104.297 E0.01288
G1 X113.708 Y94.570 E0.43464
G1 X113.170 Y94.570 E0.01698
G1 X123.093 Y104.493 E0.44337
G1 X122.775 Y104.711 E0.01221
G1 X112.633 Y94.570 E0.45314
G1 X112.096 Y94.570 E0.01698
G1 X112.956 Y95.430 E0.03844
G1 X112.419 Y95.430 E0.01698
G1 X111.558 Y94.570 E0.03844
G1 X111.021 Y94.570 E0.01698
G1 X111.881 Y95.430 E0.03844
G1 X111.344 Y95.430 E0.01698
G1 X110.484 Y94.570 E0.03844
G1 X110.070 Y94.570 E0.01307
G1 X110.070 Y94.694 E0.00391
G1 X110.806 Y95.430 E0.03291
G1 X110.269 Y95.430 E0.01698
G1 X109.900 Y95.061 E0.01648
;WIPE_START
G1 F8640.000
G1 X110.269 Y95.430 E-0.12046
G1 X110.806 Y95.430 E-0.12408
G1 X110.070 Y94.694 E-0.24052
G1 X110.070 Y94.570 E-0.02856
G1 X110.484 Y94.570 E-0.09552
G1 X110.946 Y95.032 E-0.15086
;WIPE_END
G1 E-0.04000 F2100.000
G1 Z0.600 F10800.000
G1 X113.400 Y95.874
G1 Z0.200
G1 E0.80000 F2100.000
G1 F1200.000
G1 X122.490 Y104.965 E0.40617
G1 X122.238 Y105.250 E0.01203
G1 X113.570 Y96.581 E0.38731
G1 X113.570 Y97.119 E0.01698
G1 X122.010 Y105.559 E0.37713
M73 P4 R29
M73 Q4 S29
G1 X121.813 Y105.899 E0.01243
G1 X113.570 Y97.656 E0.36833
G1 X113.570 Y98.194 E0.01698
G1 X121.652 Y106.276 E0.36114
G1 X121.593 Y106.422 E0.00497
G1 X121.530 Y106.691 E0.00875
G1 X113.570 Y98.731 E0.35569
G1 X113.570 Y99.268 E0.01698
G1 X121.454 Y107.152 E0.35226
G1 X121.427 Y107.500 E0.01102
G1 X121.441 Y107.676 E0.00559
G1 X113.570 Y99.806 E0.35167
G1 X113.570 Y100.343 E0.01698
G1 X121.757 Y108.530 E0.36582
;WIPE_START
G1 F8640.000
G1 X119.430 Y106.203 E-0.76000
;WIPE_END
G1 E-0.04000 F2100.000
G1 Z0.600 F10800.000
G1 X128.204 Y106.379
G1 Z0.200
G1 E0.80000 F2100.000
G1 F1200.000
G1 X136.430 Y114.605 E0.36755
G1 X136.430 Y115.143 E0.01698
G1 X128.563 Y107.275 E0.35154
G1 X128.557 Y107.807 E0.01681
G1 X136.430 Y115.680 E0.35177
G1 X136.430 Y116.218 E0.01698
G1 X128.485 Y108.273 E0.35498
G1 X128.361 Y108.686 E0.01363
G1 X136.430 Y116.755 E0.36053
G1 X136.430 Y117.292 E0.01698
G1 X128.201 Y109.063 E0.36768
G1 X128.089 Y109.290 E0.00800
G1 X128.008 Y109.408 E0.00450
G1 X136.031 Y117.430 E0.35845
G1 X135.493 Y117.430 E0.01698
G1 X127.790 Y109.727 E0.34421
G1 X127.532 Y110.006 E0.01202
G1 X134.956 Y117.430 E0.33170
G1 X134.419 Y117.430 E0.01698
G1 X127.252 Y110.263 E0.32023
G1 X126.947 Y110.496 E0.01211
G1 X133.881 Y117.430 E0.30985
G1 X133.344 Y117.430 E0.01698
G1 X126.599 Y110.686 E0.30136
G1 X126.462 Y110.760 E0.00495
G1 X126.223 Y110.846 E0.00802
G1 X132.806 Y117.430 E0.29418
G1 X132.269 Y117.430 E0.01698
G1 X125.811 Y110.972 E0.28857
M73 P4 R28
G1 X125.353 Y111.052 E0.01467
G1 X131.732 Y117.430 E0.28500
G1 X131.194 Y117.430 E0.01698
G1 X124.831 Y111.067 E0.28433
G1 X124.320 Y111.008 E0.01626
G1 X124.202 Y110.975 E0.00385
G1 X130.657 Y117.430 E0.28841
M73 Q4 S28
G1 X130.120 Y117.430 E0.01698
G1 X123.357 Y110.668 E0.30216
G1 X122.834 Y110.342 E0.01948
G1 X122.426 Y109.978 E0.01728
G1 X122.078 Y109.556 E0.01728
G1 X121.832 Y109.142 E0.01519
G1 X113.570 Y100.880 E0.36916
G1 X113.570 Y101.418 E0.01698
G1 X129.582 Y117.430 E0.71546
G1 X129.045 Y117.430 E0.01698
G1 X113.570 Y101.955 E0.69145
G1 X113.570 Y102.492 E0.01698
G1 X128.508 Y117.430 E0.66744
M73 P5 R28
M73 Q5 S28
G1 X127.970 Y117.430 E0.01698
G1 X113.570 Y103.030 E0.64343
G1 X113.570 Y103.567 E0.01698
G1 X127.433 Y117.430 E0.61942
G1 X126.895 Y117.430 E0.01698
G1 X113.570 Y104.105 E0.59541
G1 X113.570 Y104.642 E0.01698
G1 X126.358 Y117.430 E0.57140
G1 X125.821 Y117.430 E0.01698
G1 X113.570 Y105.179 E0.54739
G1 X113.570 Y105.717 E0.01698
G1 X125.283 Y117.430 E0.52338
G1 X124.746 Y117.430 E0.01698
G1 X113.570 Y106.254 E0.49937
G1 X113.570 Y106.791 E0.01698
G1 X124.209 Y117.430 E0.47536
G1 X123.671 Y117.430 E0.01698
G1 X113.570 Y107.329 E0.45135
G1 X113.570 Y107.866 E0.01698
G1 X123.134 Y117.430 E0.42734
G1 X122.597 Y117.430 E0.01698
G1 X113.570 Y108.403 E0.40333
G1 X113.570 Y108.941 E0.01698
G1 X122.059 Y117.430 E0.37932
G1 X121.522 Y117.430 E0.01698
G1 X113.570 Y109.478 E0.35531
G1 X113.570 Y110.016 E0.01698
G1 X120.984 Y117.430 E0.33130
G1 X120.447 Y117.430 E0.01698
G1 X113.570 Y110.553 E0.30729
G1 X113.570 Y111.090 E0.01698
G1 X119.910 Y117.430 E0.28328
G1 X119.372 Y117.430 E0.01698
G1 X113.570 Y111.628 E0.25927
G1 X113.570 Y112.165 E0.01698
G1 X118.835 Y117.430 E0.23526
G1 X118.298 Y117.430 E0.01698
G1 X113.570 Y112.702 E0.21125
G1 X113.570 Y113.240 E0.01698
G1 X117.760 Y117.430 E0.18724
G1 X117.223 Y117.430 E0.01698
G1 X113.570 Y113.777 E0.16323
G1 X113.570 Y114.314 E0.01698
G1 X116.686 Y117.430 E0.13922
G1 X116.148 Y117.430 E0.01698
G1 X113.570 Y114.852 E0.11521
G1 X113.570 Y115.389 E0.01698
G1 X115.611 Y117.430 E0.09120
G1 X115.074 Y117.430 E0.01698
G1 X113.570 Y115.926 E0.06719
G1 X113.570 Y116.464 E0.01698
G1 X114.536 Y117.430 E0.04317
G1 X113.999 Y117.430 E0.01698
G1 X113.400 Y116.832 E0.02675
; stop printing object AlignmentLaser.stl id:0 copy 0
M106 S66.3
;LAYER_CHANGE
;Z:0.4
;HEIGHT:0.2
;BEFORE_LAYER_CHANGE
G92 E0.0
;0.4


