; generated by PrusaSlicer 2.3.1+win64 on 2021-10-14 at 09:01:08 UTC

; 

; external perimeters extrusion width = 0.45mm
; perimeters extrusion width = 0.45mm
; infill extrusion width = 0.45mm
; solid infill extrusion width = 0.45mm
; top infill extrusion width = 0.40mm
; first layer extrusion width = 0.42mm

M73 P0 R30
M73 Q0 S30
M201 X1000 Y1000 Z200 E5000 ; sets maximum accelerations, mm/sec^2
M203 X200 Y200 Z12 E120 ; sets maximum feedrates, mm/sec
M204 P1250 R1250 T1250 ; sets acceleration (P, T) and retract acceleration (R), mm/sec^2
M205 X8.00 Y8.00 Z0.40 E4.50 ; sets the jerk limits, mm/sec
M205 S0 T0 ; sets the minimum extruding and travel feed rate, mm/sec
M107
;TYPE:Custom
M862.3 P "MK3S" ; printer model check
M862.1 P0.4 ; nozzle diameter check
M115 U3.9.3 ; tell printer latest fw version
G90 ; use absolute coordinates
M83 ; extruder relative mode
M104 S215 ; set extruder temp
M140 S60 ; set bed temp
M190 S60 ; wait for bed temp
M109 S215 ; wait for extruder temp
G28 W ; home all without mesh bed level
G80 ; mesh bed leveling
G1 Y-3.0 F1000.0 ; go outside print area
G92 E0.0
G1 X60.0 E9.0 F1000.0 ; intro line
G1 X100.0 E12.5 F1000.0 ; intro line
G92 E0.0
M221 S95

; Don't change E values below. Excessive value can damage the printer.

M907 E538 ; set extruder motor current
G21 ; set units to millimeters
G90 ; use absolute coordinates
M83 ; use relative distances for extrusion
M900 K0.05 ; Filament gcode LA 1.5
M900 K30 ; Filament gcode LA 1.0
;LAYER_CHANGE
;Z:0.2
;HEIGHT:0.2
;BEFORE_LAYER_CHANGE
G92 E0.0
;0.2


G1 E-0.80000 F2100.000
G1 Z0.400 F10800.000
;AFTER_LAYER_CHANGE
;0.2
G1 X97.006 Y72.198
G1 Z0.200
G1 E0.80000 F2100.000
M204 S1000
;TYPE:Skirt
;WIDTH:0.42
G1 F1200.000
G1 X97.347 Y71.635 E0.02065
G1 X97.816 Y71.166 E0.02078
G1 X98.380 Y70.825 E0.02065
G1 X99.012 Y70.627 E0.02078
G1 X113.194 Y68.600 E0.44918
G1 X116.518 Y68.581 E0.10424
G1 X132.072 Y70.638 E0.49193
G1 X132.685 Y70.842 E0.02026
G1 X133.234 Y71.184 E0.02026
G1 X133.688 Y71.644 E0.02026
G1 X134.022 Y72.197 E0.02026
G1 X134.265 Y73.199 E0.03233
G1 X134.246 Y76.687 E0.10935
G1 X130.732 Y98.780 E0.70142
G1 X130.522 Y99.473 E0.02269
G1 X130.121 Y100.109 E0.02358
G1 X129.563 Y100.612 E0.02358
G1 X128.885 Y100.948 E0.02371
G1 X128.146 Y101.086 E0.02358
G1 X102.989 Y101.089 E0.78877
G1 X102.420 Y101.024 E0.01796
G1 X101.877 Y100.843 E0.01796
G1 X101.304 Y100.494 E0.02103
G1 X100.833 Y100.017 E0.02103
G1 X100.491 Y99.440 E0.02103
G1 X100.299 Y98.797 E0.02103
G1 X96.781 Y76.674 E0.70235
G1 X96.763 Y73.196 E0.10907
G1 X96.992 Y72.256 E0.03032
G1 X97.354 Y72.344 F10800.000
G1 F1200.000
G1 X97.653 Y71.856 E0.01794
G1 X98.061 Y71.453 E0.01799
G1 X98.555 Y71.160 E0.01799
G1 X99.100 Y70.994 E0.01787
G1 X113.238 Y68.974 E0.44780
M73 P0 R29
G1 X116.518 Y68.958 E0.10283
G1 X131.975 Y71.003 E0.48886
M73 Q0 S29
G1 X132.513 Y71.178 E0.01775
G1 X132.995 Y71.476 E0.01775
G1 X133.393 Y71.879 E0.01775
G1 X133.682 Y72.361 E0.01763
G1 X133.889 Y73.230 E0.02802
G1 X133.871 Y76.643 E0.10700
G1 X130.360 Y98.716 E0.70079
G1 X130.175 Y99.326 E0.02000
G1 X129.823 Y99.877 E0.02048
G1 X129.338 Y100.309 E0.02036
G1 X128.751 Y100.595 E0.02048
G1 X128.112 Y100.710 E0.02036
G1 X102.995 Y100.712 E0.78754
M73 P1 R29
M73 Q1 S29
G1 X102.496 Y100.655 E0.01574
G1 X102.021 Y100.495 E0.01574
G1 X101.529 Y100.191 E0.01811
G1 X101.125 Y99.779 E0.01811
G1 X100.833 Y99.281 E0.01811
G1 X100.669 Y98.723 E0.01823
G1 X97.155 Y76.629 E0.70143
G1 X97.139 Y73.225 E0.10675
G1 X97.340 Y72.402 E0.02654
; printing object AlignmentJig.stl id:0 copy 0
;WIPE_START
G1 F8640.000
G1 X97.653 Y71.856 E-0.14535
G1 X98.061 Y71.453 E-0.13248
G1 X98.555 Y71.160 E-0.13248
G1 X99.100 Y70.994 E-0.13161
G1 X100.035 Y70.861 E-0.21808
;WIPE_END
G1 E-0.04000 F2100.000
G1 Z0.600 F10800.000
G1 X112.864 Y85.222
G1 Z0.200
G1 E0.80000 F2100.000
;TYPE:Perimeter
G1 F1200.000
G1 X113.209 Y84.851 E0.01588
G1 X113.586 Y84.549 E0.01514
G1 X114.041 Y84.282 E0.01655
G1 X114.515 Y84.096 E0.01595
G1 X115.009 Y83.984 E0.01588
G1 X115.490 Y83.948 E0.01514
G1 X116.017 Y83.983 E0.01655
G1 X116.513 Y84.096 E0.01595
G1 X116.985 Y84.281 E0.01588
G1 X117.423 Y84.535 E0.01588
G1 X117.819 Y84.851 E0.01588
G1 X118.164 Y85.222 E0.01588
G1 X118.449 Y85.640 E0.01588
G1 X118.669 Y86.097 E0.01588
G1 X118.818 Y86.581 E0.01588
G1 X118.894 Y87.082 E0.01588
G1 X118.894 Y87.588 E0.01588
G1 X118.818 Y88.089 E0.01588
G1 X118.669 Y88.573 E0.01588
G1 X118.449 Y89.030 E0.01588
G1 X118.164 Y89.448 E0.01588
G1 X117.819 Y89.820 E0.01588
G1 X117.423 Y90.135 E0.01588
G1 X116.985 Y90.389 E0.01588
G1 X116.513 Y90.574 E0.01588
G1 X116.019 Y90.687 E0.01588
G1 X115.514 Y90.724 E0.01588
G1 X115.009 Y90.687 E0.01588
G1 X114.515 Y90.574 E0.01588
G1 X114.065 Y90.397 E0.01514
G1 X113.606 Y90.137 E0.01655
G1 X113.209 Y89.820 E0.01595
G1 X112.864 Y89.448 E0.01588
G1 X112.579 Y89.030 E0.01588
G1 X112.359 Y88.573 E0.01588
G1 X112.210 Y88.089 E0.01588
G1 X112.134 Y87.588 E0.01588
G1 X112.134 Y87.082 E0.01588
G1 X112.210 Y86.581 E0.01588
G1 X112.359 Y86.097 E0.01588
G1 X112.579 Y85.640 E0.01588
G1 X112.830 Y85.271 E0.01400
G1 X113.142 Y85.484 F10800.000
;TYPE:External perimeter
G1 F1200.000
G1 X113.466 Y85.128 E0.01510
G1 X113.800 Y84.861 E0.01341
G1 X114.207 Y84.622 E0.01478
G1 X114.626 Y84.458 E0.01413
G1 X115.065 Y84.358 E0.01411
G1 X115.492 Y84.326 E0.01341
G1 X115.962 Y84.357 E0.01478
G1 X116.402 Y84.458 E0.01413
G1 X116.820 Y84.622 E0.01411
G1 X117.210 Y84.847 E0.01411
G1 X117.562 Y85.128 E0.01411
G1 X117.868 Y85.458 E0.01411
G1 X118.122 Y85.830 E0.01411
G1 X118.317 Y86.235 E0.01411
G1 X118.450 Y86.665 E0.01411
G1 X118.517 Y87.110 E0.01411
G1 X118.517 Y87.560 E0.01411
G1 X118.450 Y88.005 E0.01411
G1 X118.317 Y88.435 E0.01411
G1 X118.122 Y88.841 E0.01411
G1 X117.868 Y89.213 E0.01411
G1 X117.562 Y89.542 E0.01411
G1 X117.210 Y89.823 E0.01411
G1 X116.820 Y90.048 E0.01411
G1 X116.402 Y90.212 E0.01411
G1 X115.963 Y90.313 E0.01411
G1 X115.514 Y90.346 E0.01411
G1 X115.065 Y90.313 E0.01411
G1 X114.626 Y90.212 E0.01411
G1 X114.228 Y90.056 E0.01341
G1 X113.818 Y89.824 E0.01478
G1 X113.466 Y89.542 E0.01413
G1 X113.160 Y89.213 E0.01411
G1 X112.906 Y88.841 E0.01411
G1 X112.711 Y88.435 E0.01411
G1 X112.578 Y88.005 E0.01411
G1 X112.511 Y87.560 E0.01411
G1 X112.511 Y87.110 E0.01411
G1 X112.578 Y86.665 E0.01411
G1 X112.711 Y86.235 E0.01411
G1 X112.906 Y85.830 E0.01411
G1 X113.108 Y85.533 E0.01123
G1 X112.993 Y85.113 F10800.000
;WIPE_START
G1 F8640.000
G1 X113.466 Y85.128 E-0.12490
G1 X113.800 Y84.861 E-0.09878
G1 X114.207 Y84.622 E-0.10882
G1 X114.626 Y84.458 E-0.10409
G1 X115.065 Y84.358 E-0.10392
G1 X115.492 Y84.326 E-0.09878
G1 X115.962 Y84.357 E-0.10882
G1 X116.012 Y84.369 E-0.01188
;WIPE_END
G1 E-0.04000 F2100.000
G1 Z0.600 F10800.000
G1 X115.727 Y74.122
G1 Z0.200
G1 E0.80000 F2100.000
;TYPE:Perimeter
G1 F1200.000
G1 X130.727 Y74.122 E0.47031
G1 X130.727 Y75.548 E0.04471
G1 X127.227 Y75.548 E0.10974
G1 X127.227 Y97.548 E0.68979
G1 X103.801 Y97.548 E0.73450
G1 X103.801 Y75.548 E0.68979
G1 X100.301 Y75.548 E0.10974
G1 X100.301 Y74.122 E0.04471
G1 X114.301 Y74.122 E0.43896
G1 X114.301 Y72.122 E0.06271
G1 X115.727 Y72.122 E0.04471
G1 X115.727 Y74.062 E0.06083
G1 X116.104 Y73.745 F10800.000
;TYPE:External perimeter
G1 F1200.000
G1 X131.104 Y73.745 E0.47031
G1 X131.104 Y75.925 E0.06835
G1 X127.604 Y75.925 E0.10974
G1 X127.604 Y97.925 E0.68979
G1 X103.424 Y97.925 E0.75815
G1 X103.424 Y75.925 E0.68979
G1 X99.924 Y75.925 E0.10974
G1 X99.924 Y73.745 E0.06835
G1 X113.924 Y73.745 E0.43896
G1 X113.924 Y71.745 E0.06271
G1 X116.104 Y71.745 E0.06835
G1 X116.104 Y73.685 E0.06083
G1 X116.213 Y74.130 F10800.000
;WIPE_START
G1 F8640.000
G1 X119.395 Y73.698 E-0.76000
;WIPE_END
G1 E-0.04000 F2100.000
G1 Z0.600 F10800.000
G1 X130.614 Y75.004
G1 Z0.200
G1 E0.80000 F2100.000
;TYPE:Solid infill
;WIDTH:0.422892
G1 F1200.000
G1 X130.015 Y74.405 E0.02675
G1 X129.478 Y74.405 E0.01698
G1 X130.338 Y75.265 E0.03844
G1 X129.801 Y75.265 E0.01698
G1 X128.940 Y74.405 E0.03844
G1 X128.403 Y74.405 E0.01698
G1 X129.263 Y75.265 E0.03844
G1 X128.726 Y75.265 E0.01698
G1 X127.866 Y74.405 E0.03844
G1 X127.328 Y74.405 E0.01698
G1 X128.189 Y75.265 E0.03844
G1 X127.651 Y75.265 E0.01698
G1 X126.791 Y74.405 E0.03844
G1 X126.254 Y74.405 E0.01698
G1 X127.114 Y75.265 E0.03844
G1 X126.944 Y75.265 E0.00536
G1 X126.944 Y75.633 E0.01162
G1 X125.716 Y74.405 E0.05487
M73 Q2 S29
G1 X125.179 Y74.405 E0.01698
G1 X126.944 Y76.170 E0.07888
G1 X126.944 Y76.708 E0.01698
G1 X124.641 Y74.405 E0.10289
M73 P2 R29
G1 X124.104 Y74.405 E0.01698
G1 X126.944 Y77.245 E0.12690
G1 X126.944 Y77.782 E0.01698
G1 X123.567 Y74.405 E0.15091
G1 X123.029 Y74.405 E0.01698
G1 X126.944 Y78.320 E0.17492
G1 X126.944 Y78.857 E0.01698
G1 X122.492 Y74.405 E0.19893
G1 X121.955 Y74.405 E0.01698
G1 X126.944 Y79.394 E0.22294
G1 X126.944 Y79.932 E0.01698
G1 X121.417 Y74.405 E0.24695
G1 X120.880 Y74.405 E0.01698
G1 X126.944 Y80.469 E0.27096
G1 X126.944 Y81.007 E0.01698
G1 X120.343 Y74.405 E0.29497
G1 X119.805 Y74.405 E0.01698
G1 X126.944 Y81.544 E0.31898
G1 X126.944 Y82.081 E0.01698
G1 X119.268 Y74.405 E0.34299
G1 X118.730 Y74.405 E0.01698
G1 X126.944 Y82.619 E0.36700
G1 X126.944 Y83.156 E0.01698
G1 X118.193 Y74.405 E0.39101
G1 X117.656 Y74.405 E0.01698
G1 X126.944 Y83.693 E0.41502
G1 X126.944 Y84.231 E0.01698
G1 X117.118 Y74.405 E0.43903
G1 X116.581 Y74.405 E0.01698
G1 X126.944 Y84.768 E0.46304
G1 X126.944 Y85.305 E0.01698
G1 X115.874 Y74.235 E0.49463
;WIPE_START
G1 F8640.000
G1 X118.201 Y76.563 E-0.76000
;WIPE_END
G1 E-0.04000 F2100.000
G1 Z0.600 F10800.000
G1 X115.614 Y72.900
G1 Z0.200
G1 E0.80000 F2100.000
G1 F1200.000
G1 X115.118 Y72.405 E0.02214
G1 X114.584 Y72.405 E0.01689
G1 X115.444 Y73.268 E0.03850
G1 X115.444 Y73.805 E0.01698
G1 X114.584 Y72.945 E0.03844
G1 X114.584 Y73.483 E0.01698
G1 X126.944 Y85.843 E0.55228
G1 X126.944 Y86.380 E0.01698
G1 X114.584 Y74.020 E0.55228
G1 X114.584 Y74.405 E0.01217
G1 X114.432 Y74.405 E0.00481
G1 X126.944 Y86.917 E0.55908
G1 X126.944 Y87.455 E0.01698
G1 X113.894 Y74.405 E0.58309
G1 X113.357 Y74.405 E0.01698
G1 X126.944 Y87.992 E0.60710
G1 X126.944 Y88.530 E0.01698
G1 X112.820 Y74.405 E0.63111
G1 X112.282 Y74.405 E0.01698
G1 X126.944 Y89.067 E0.65512
G1 X126.944 Y89.604 E0.01698
G1 X111.745 Y74.405 E0.67913
G1 X111.207 Y74.405 E0.01698
G1 X126.944 Y90.142 E0.70314
M73 P3 R29
M73 Q3 S29
G1 X126.944 Y90.679 E0.01698
G1 X110.670 Y74.405 E0.72715
G1 X110.133 Y74.405 E0.01698
G1 X126.944 Y91.216 E0.75116
G1 X126.944 Y91.754 E0.01698
G1 X109.595 Y74.405 E0.77517
G1 X109.058 Y74.405 E0.01698
G1 X126.944 Y92.291 E0.79918
G1 X126.944 Y92.828 E0.01698
G1 X108.521 Y74.405 E0.82319
G1 X107.983 Y74.405 E0.01698
G1 X126.944 Y93.366 E0.84721
G1 X126.944 Y93.903 E0.01698
G1 X118.839 Y85.798 E0.36215
G1 X118.695 Y85.499 E0.01050
G1 X118.386 Y85.045 E0.01734
G1 X118.012 Y84.643 E0.01734
G1 X117.583 Y84.300 E0.01734
G1 X117.041 Y84.000 E0.01960
G1 X107.446 Y74.405 E0.42871
G1 X106.909 Y74.405 E0.01698
G1 X116.250 Y83.746 E0.41738
G1 X116.058 Y83.703 E0.00621
G1 X115.640 Y83.674 E0.01323
G1 X106.371 Y74.405 E0.41417
G1 X105.834 Y74.405 E0.01698
G1 X115.121 Y83.692 E0.41495
G1 X114.967 Y83.703 E0.00488
G1 X114.664 Y83.772 E0.00981
G1 X105.296 Y74.405 E0.41855
G1 X104.759 Y74.405 E0.01698
G1 X114.251 Y83.896 E0.42409
G1 X113.871 Y84.054 E0.01298
G1 X104.222 Y74.405 E0.43115
G1 X103.684 Y74.405 E0.01698
G1 X113.532 Y84.253 E0.44003
G1 X113.221 Y84.479 E0.01216
G1 X103.147 Y74.405 E0.45013
G1 X102.610 Y74.405 E0.01698
G1 X103.470 Y75.265 E0.03844
G1 X102.933 Y75.265 E0.01698
G1 X102.072 Y74.405 E0.03844
G1 X101.535 Y74.405 E0.01698
G1 X102.395 Y75.265 E0.03844
G1 X101.858 Y75.265 E0.01698
G1 X100.998 Y74.405 E0.03844
G1 X100.584 Y74.405 E0.01307
G1 X100.584 Y74.529 E0.00391
G1 X101.320 Y75.265 E0.03291
G1 X100.783 Y75.265 E0.01698
G1 X100.414 Y74.896 E0.01648
;WIPE_START
G1 F8640.000
G1 X100.783 Y75.265 E-0.12046
G1 X101.320 Y75.265 E-0.12408
G1 X100.584 Y74.529 E-0.24052
G1 X100.584 Y74.405 E-0.02856
G1 X100.998 Y74.405 E-0.09552
G1 X101.460 Y74.867 E-0.15086
;WIPE_END
G1 E-0.04000 F2100.000
G1 Z0.600 F10800.000
G1 X103.914 Y75.710
G1 Z0.200
G1 E0.80000 F2100.000
G1 F1200.000
G1 X112.935 Y84.730 E0.40305
G1 X112.676 Y85.009 E0.01201
G1 X104.084 Y76.417 E0.38392
G1 X104.084 Y76.954 E0.01698
M73 Q4 S29
G1 X112.453 Y85.323 E0.37395
M73 P4 R29
G1 X112.333 Y85.499 E0.00672
G1 X112.255 Y85.662 E0.00573
G1 X104.084 Y77.491 E0.36508
G1 X104.084 Y78.029 E0.01698
G1 X112.084 Y86.029 E0.35746
G1 X111.957 Y86.439 E0.01358
G1 X104.084 Y78.566 E0.35180
G1 X104.084 Y79.103 E0.01698
G1 X111.876 Y86.896 E0.34818
M73 P4 R28
G1 X111.851 Y87.061 E0.00527
G1 X111.851 Y87.408 E0.01098
G1 X104.084 Y79.641 E0.34707
M73 Q4 S28
G1 X104.084 Y80.178 E0.01698
G1 X112.134 Y88.228 E0.35971
;WIPE_START
G1 F8640.000
G1 X109.807 Y85.901 E-0.76000
;WIPE_END
G1 E-0.04000 F2100.000
G1 Z0.600 F10800.000
G1 X118.871 Y86.367
G1 Z0.200
G1 E0.80000 F2100.000
G1 F1200.000
G1 X126.944 Y94.441 E0.36073
G1 X126.944 Y94.978 E0.01698
G1 X119.177 Y87.210 E0.34707
G1 X119.177 Y87.610 E0.01261
G1 X119.159 Y87.730 E0.00384
G1 X126.944 Y95.515 E0.34788
G1 X126.944 Y96.053 E0.01698
G1 X119.083 Y88.191 E0.35126
G1 X118.956 Y88.602 E0.01358
G1 X126.944 Y96.590 E0.35692
G1 X126.944 Y97.127 E0.01698
G1 X118.790 Y88.973 E0.36433
G1 X118.695 Y89.172 E0.00695
G1 X118.596 Y89.317 E0.00554
G1 X126.545 Y97.265 E0.35516
G1 X126.007 Y97.265 E0.01698
G1 X118.377 Y89.635 E0.34095
G1 X118.118 Y89.913 E0.01201
G1 X125.470 Y97.265 E0.32849
G1 X124.933 Y97.265 E0.01698
G1 X117.836 Y90.168 E0.31710
G1 X117.530 Y90.400 E0.01212
G1 X124.395 Y97.265 E0.30674
G1 X123.858 Y97.265 E0.01698
G1 X117.190 Y90.597 E0.29795
G1 X116.815 Y90.759 E0.01291
G1 X123.320 Y97.265 E0.29070
G1 X122.783 Y97.265 E0.01698
G1 X116.406 Y90.888 E0.28493
G1 X115.955 Y90.975 E0.01450
G1 X122.246 Y97.265 E0.28106
G1 X121.708 Y97.265 E0.01698
G1 X115.446 Y91.003 E0.27981
G1 X114.967 Y90.967 E0.01519
G1 X114.845 Y90.939 E0.00394
G1 X121.171 Y97.265 E0.28266
G1 X120.634 Y97.265 E0.01698
G1 X114.072 Y90.704 E0.29317
G1 X113.943 Y90.653 E0.00438
G1 X113.447 Y90.372 E0.01801
G1 X113.016 Y90.028 E0.01744
G1 X112.642 Y89.625 E0.01734
G1 X112.333 Y89.172 E0.01734
G1 X112.141 Y88.773 E0.01399
G1 X104.084 Y80.715 E0.36001
G1 X104.084 Y81.253 E0.01698
G1 X120.096 Y97.265 E0.71546
G1 X119.559 Y97.265 E0.01698
G1 X104.084 Y81.790 E0.69145
G1 X104.084 Y82.328 E0.01698
G1 X119.022 Y97.265 E0.66744
M73 P5 R28
M73 Q5 S28
G1 X118.484 Y97.265 E0.01698
G1 X104.084 Y82.865 E0.64343
G1 X104.084 Y83.402 E0.01698
G1 X117.947 Y97.265 E0.61942
G1 X117.409 Y97.265 E0.01698
G1 X104.084 Y83.940 E0.59541
G1 X104.084 Y84.477 E0.01698
G1 X116.872 Y97.265 E0.57140
G1 X116.335 Y97.265 E0.01698
G1 X104.084 Y85.014 E0.54739
G1 X104.084 Y85.552 E0.01698
G1 X115.797 Y97.265 E0.52338
G1 X115.260 Y97.265 E0.01698
G1 X104.084 Y86.089 E0.49937
G1 X104.084 Y86.626 E0.01698
G1 X114.723 Y97.265 E0.47536
G1 X114.185 Y97.265 E0.01698
G1 X104.084 Y87.164 E0.45135
G1 X104.084 Y87.701 E0.01698
G1 X113.648 Y97.265 E0.42734
G1 X113.111 Y97.265 E0.01698
G1 X104.084 Y88.239 E0.40333
G1 X104.084 Y88.776 E0.01698
G1 X112.573 Y97.265 E0.37932
G1 X112.036 Y97.265 E0.01698
G1 X104.084 Y89.313 E0.35531
G1 X104.084 Y89.851 E0.01698
G1 X111.498 Y97.265 E0.33130
G1 X110.961 Y97.265 E0.01698
G1 X104.084 Y90.388 E0.30729
G1 X104.084 Y90.925 E0.01698
G1 X110.424 Y97.265 E0.28328
G1 X109.886 Y97.265 E0.01698
G1 X104.084 Y91.463 E0.25927
G1 X104.084 Y92.000 E0.01698
G1 X109.349 Y97.265 E0.23526
G1 X108.812 Y97.265 E0.01698
G1 X104.084 Y92.537 E0.21125
G1 X104.084 Y93.075 E0.01698
G1 X108.274 Y97.265 E0.18724
G1 X107.737 Y97.265 E0.01698
G1 X104.084 Y93.612 E0.16323
G1 X104.084 Y94.149 E0.01698
G1 X107.200 Y97.265 E0.13922
G1 X106.662 Y97.265 E0.01698
G1 X104.084 Y94.687 E0.11521
G1 X104.084 Y95.224 E0.01698
G1 X106.125 Y97.265 E0.09120
G1 X105.588 Y97.265 E0.01698
G1 X104.084 Y95.762 E0.06719
G1 X104.084 Y96.299 E0.01698
G1 X105.050 Y97.265 E0.04317
G1 X104.513 Y97.265 E0.01698
G1 X103.914 Y96.667 E0.02675
; stop printing object AlignmentJig.stl id:0 copy 0
M106 S66.3
;LAYER_CHANGE
;Z:0.4
;HEIGHT:0.2
